X:1
T:Title
%%score { ( 1 3 ) | 2 }
L:1/8
M:4/4
K:G
V:1 treble nm="Grand Piano"
V:3 treble 
V:2 bass 
V:1
 z4 z2[Q:1/4=112] [B,D]2 | [B,D]3 [B,D] [B,D]2 [B,D]2 | [DG]2 A2 B2 [B,D]2 | D3 D D2 D2 | %4
[M:3/4] A2 [GB]2 [Fc]2 |[M:1/4] [Dc]2 |[M:4/4] [DB]3 [DB] [^DB]2 [DA]2 | [EG]3 [EG] [EG]2 [Ec]2 | %8
 [DB]3 [B,GB] [DFB]2 [CFA]2 |[M:3/4] [B,G]6 |[M:1/4] [DB]2 |[M:4/4] [Fd]3 [Gd] [Ad]2 [Fc]2 | %12
 [GB]6 z2 | [^DB]3 [DB] [DB]2 [FA]2 |[M:3/4] G6 |[M:1/4] G2 |[M:4/4] [Ge]3 [Gd] [DFc]2 [CA]2 | %17
 [Gd]3 [Dc] [DB]2 [B,DG]2 | [DGB]3 [CDA] [B,DG]2 [A,DF]2 |[M:3/4] [B,DG]6 |] %20
V:2
 z4 z2 [G,,G,]2 | [G,,G,]3 [G,,G,] [G,,G,]2 [G,,G,]2 | [B,,G,]2 [D,F,D]2 [G,D]2 [G,,G,]2 | %3
 [D,A,C]3 [D,A,C] [D,A,C]2 [D,A,C]2 |[M:3/4] [D,CD]2 [D,B,]2 [D,A,]2 |[M:1/4] [D,A,]2 | %6
[M:4/4] [G,,G,]3 [G,,G,] [B,,F,]2 [B,,F,]2 | [E,G,]3 [E,B,] [C,C]2 [C,G,]2 | [D,G,]3 D, D,2 D,2 | %9
[M:3/4] G,,6 |[M:1/4] G,2 |[M:4/4] [D,A,]3 [E,A,] [F,A,]2 [D,A,]2 | G,2 D,2 G,,2 [G,,G,]2 | %13
 [B,,F,]3 [B,,F,] [B,,F,]2 [^D,B,]2 |[M:3/4] [E,B,]2 E,2 E,2 |[M:1/4] [D,B,]2 | %16
[M:4/4] [C,C]3 [B,,G,] A,,2 D,2 | [D,B,]3 [F,A,] G,2 G,2 | D,3 D, D,2 D,2 |[M:3/4] G,,6 |] %20
V:3
 x8 | x8 | x8 | x8 |[M:3/4] x6 |[M:1/4] x2 |[M:4/4] x8 | x8 | x8 |[M:3/4] x6 |[M:1/4] x2 | %11
[M:4/4] x8 | z2 G,2 G,2 [DB]2 | x8 |[M:3/4] z2 B,2 B,2 |[M:1/4] x2 |[M:4/4] x8 | x8 | x8 | %19
[M:3/4] x6 |] %20

